svgs/webnovel.svg

<svg width="192" height="192" viewBox="0 0 192 192" fill="none" xmlns="http://www.w3.org/2000/svg">
<path d="M74.3451 113.394C64.838 93.8521 74.324 78.1332 88.6056 72.7254C105.307 66.4011 123.268 79.8905 121.88 102.303C120.653 107.769 119.111 111.956 116.853 115.507M94.9437 108.641L43.1831 129.239V47.3732C36.6726 38.7867 31.753 33.6689 21 31V161.986L96 131.191M94.9437 108.641C94.9437 108.641 99.3444 105.423 100.754 102.303C102.163 99.1828 100.754 93.8521 100.754 93.8521C97.6596 91.8107 95.9249 91.2065 92.831 93.8521C92.831 93.8521 90 97.5 92.3028 102.831C94.6056 108.162 94.9437 108.641 94.9437 108.641ZM96 131.191L100.754 129.239C108.571 124.655 113.501 120.782 116.853 115.507M96 131.191L171 161.986V31C160.402 33.9148 153.76 37.6422 147.761 47.3732V128.183L116.853 115.507" stroke="black" stroke-width="10" stroke-linecap="round" stroke-linejoin="round"/>
</svg>

<svg width="192" height="192" viewBox="0 0 192 192" fill="none" xmlns="http://www.w3.org/2000/svg"><path d="M74.345 113.394c-9.507-19.542-.021-35.26 14.26-40.669 16.702-6.324 34.663 7.166 33.275 29.578-1.227 5.466-2.769 9.653-5.027 13.204m-21.91-6.866-51.76 20.598V47.373C36.673 38.787 31.753 33.67 21 31v130.986l75-30.795m-1.056-22.55s4.4-3.218 5.81-6.338c1.409-3.12 0-8.45 0-8.45-3.094-2.042-4.83-2.646-7.923 0 0 0-2.831 3.647-.528 8.978 2.303 5.331 2.64 5.81 2.64 5.81ZM96 131.191l4.754-1.952c7.817-4.584 12.747-8.457 16.099-13.732M96 131.191l75 30.795V31c-10.598 2.915-17.24 6.642-23.239 16.373v80.81l-30.908-12.676" stroke="#000" stroke-width="10" stroke-linecap="round" stroke-linejoin="round"/></svg>
